assets/icons/24px/stroke/arrow-thick-down-24px.svg

<svg width="24" height="24" viewBox="0 0 24 24" fill="none" xmlns="http://www.w3.org/2000/svg">
<path fill-rule="evenodd" clip-rule="evenodd" d="M12.6182 19.8766C12.9893 19.5935 13.4346 19.1512 14.1213 18.4645L15.5355 17.0503C16.4603 16.1255 16.7132 15.8476 16.8477 15.5228C16.9822 15.198 16.9999 14.8226 16.9999 13.5148L16.9999 4.41427L15.4889 5.92529C14.8621 6.55216 14.3221 7.09229 13.8314 7.46665C13.3056 7.86785 12.7207 8.17163 11.9999 8.17163C11.2792 8.17163 10.6943 7.86785 10.1685 7.46665C9.67784 7.0923 9.13777 6.55217 8.51097 5.9253L6.99995 4.41427L6.99995 13.5148C6.99995 14.8226 7.01765 15.198 7.15219 15.5228C7.28673 15.8476 7.53963 16.1255 8.46441 17.0503L9.87863 18.4645C10.5653 19.1512 11.0106 19.5935 11.3817 19.8766C11.7296 20.1421 11.8923 20.1716 11.9999 20.1716C12.1076 20.1716 12.2703 20.1421 12.6182 19.8766ZM13.8314 21.4667C13.3056 21.8679 12.7207 22.1716 11.9999 22.1716C11.2792 22.1716 10.6943 21.8679 10.1685 21.4667C9.67783 21.0923 9.13777 20.5522 8.51096 19.9253L7.0502 18.4645C7.00963 18.424 6.96956 18.3839 6.92998 18.3444C6.17997 17.5956 5.61046 17.027 5.30443 16.2882C4.9984 15.5493 4.99903 14.7445 4.99986 13.6847C4.9999 13.6288 4.99995 13.5721 4.99995 13.5148L4.99995 4.41427C4.99995 4.39304 4.99994 4.37183 4.99994 4.35064C4.99983 3.89258 4.99973 3.44641 5.04838 3.10238C5.09376 2.78146 5.23716 2.10664 5.92592 1.82135C6.61468 1.53605 7.19325 1.91182 7.45227 2.10666C7.72993 2.31552 8.04535 2.63109 8.36917 2.95505C8.38415 2.97004 8.39915 2.98505 8.41416 3.00006L9.87863 4.46452C10.5653 5.15118 11.0106 5.59354 11.3817 5.87661C11.7296 6.14207 11.8923 6.17163 11.9999 6.17163C12.1076 6.17163 12.2703 6.14207 12.6182 5.87661C12.9893 5.59354 13.4346 5.15118 14.1213 4.46452L15.5857 3.00006C15.6007 2.98504 15.6157 2.97004 15.6307 2.95505C15.9545 2.63109 16.27 2.31552 16.5476 2.10666C16.8066 1.91182 17.3852 1.53605 18.074 1.82134C18.7627 2.10664 18.9061 2.78146 18.9515 3.10238C19.0002 3.44641 19.0001 3.89258 19 4.35064C19 4.37183 18.9999 4.39304 18.9999 4.41427L18.9999 13.5148C18.9999 13.5721 19 13.6288 19 13.6847C19.0009 14.7445 19.0015 15.5493 18.6955 16.2882C18.3894 17.027 17.8199 17.5956 17.0699 18.3444C17.0303 18.3839 16.9903 18.424 16.9497 18.4645L15.5355 19.8787C15.5199 19.8943 15.5044 19.9098 15.4889 19.9253C14.8621 20.5522 14.3221 21.0923 13.8314 21.4667Z" fill="white"/>
</svg>

<svg width="24" height="24" fill="none" xmlns="http://www.w3.org/2000/svg"><path fill-rule="evenodd" clip-rule="evenodd" d="M12.618 19.877c.371-.284.817-.726 1.503-1.412l1.415-1.415c.924-.925 1.177-1.202 1.312-1.527.134-.325.152-.7.152-2.008v-9.1l-1.511 1.51c-.627.627-1.167 1.167-1.658 1.542-.525.4-1.11.705-1.831.705-.72 0-1.306-.304-1.832-.705-.49-.375-1.03-.915-1.657-1.542L7 4.415v9.1c0 1.308.018 1.683.152 2.008.135.325.388.602 1.312 1.527l1.415 1.415c.686.686 1.132 1.128 1.503 1.412.348.265.51.295.618.295.108 0 .27-.03.618-.295zm1.213 1.59c-.525.4-1.11.705-1.831.705-.72 0-1.306-.304-1.832-.705-.49-.375-1.03-.915-1.657-1.542l-1.46-1.46-.121-.12c-.75-.75-1.32-1.318-1.626-2.057C4.998 15.55 5 14.745 5 13.685v-9.27-.064c0-.458 0-.905.048-1.249.046-.32.19-.995.878-1.28.689-.286 1.267.09 1.526.285.278.209.593.524.917.848L8.414 3 9.88 4.465c.686.686 1.132 1.129 1.503 1.412.348.265.51.295.618.295.108 0 .27-.03.618-.295.371-.283.817-.726 1.503-1.412L15.586 3l.045-.045c.323-.324.639-.64.917-.848.259-.195.837-.571 1.526-.286.689.286.832.96.877 1.281.05.344.05.79.049 1.249v9.333c0 1.06.002 1.865-.305 2.604-.306.739-.875 1.308-1.625 2.056l-.12.12-1.414 1.415-.047.046c-.627.627-1.167 1.167-1.658 1.542z" fill="#fff"/></svg>
